X: 13026
T: Finbarr Dwyer's
R: reel
M: 4/4
K: Adorian
A,2 (3A,A,A, EA,CA,|A,G,G,B, DCB,G,|A,2 CE ABAG|E2 DB, A,B,CD|
EAAG EFGE|DG,A,G, DEDB,|A,2 CE ABAG|1 E2 DB, CA,B,G,:|2 E2 DB, A,B,CD||
EAAB cABA|G2 (3GGG eGdG|EABA eABA|GEDB, G,A,B,D|
EABA eABA|G2 DG BddB|c3 A BcBA|1 GEDB, A,B,CD:|2 GEDB, A,4||

